source/img/icons/icon-phone.svg

<svg width="17" height="15" viewBox="0 0 17 15" fill="none" xmlns="http://www.w3.org/2000/svg">
<path fill-rule="evenodd" clip-rule="evenodd" d="M8.49995 0.0859375C5.7035 0.0859375 2.90033 0.558605 1.88322 1.50071C1.03934 2.2823 0.758038 3.66308 0.663214 4.53732C0.663214 4.53732 0.650146 4.62371 0.650146 4.66087C0.650146 5.0037 0.944447 5.27865 1.30427 5.27865C1.34678 5.27865 2.92002 5.15816 3.86851 5.08404C3.89134 5.08091 3.91434 5.07785 3.93716 5.0717C4.29043 5.06248 4.57505 4.79059 4.57505 4.45392L4.57822 3.23679C4.57822 2.85993 4.90214 2.55716 5.3012 2.55716H11.6987C12.0978 2.55716 12.4218 2.8599 12.4218 3.23679L12.425 4.45392C12.425 4.79059 12.7095 5.06248 13.0628 5.0717C13.0854 5.07789 13.1085 5.08091 13.1315 5.08404C14.0801 5.15812 15.6533 5.27865 15.6957 5.27865C16.0553 5.27865 16.3499 5.0037 16.3499 4.66087C16.3499 4.62371 16.3368 4.53732 16.3368 4.53732C16.2419 3.66308 15.9609 2.28234 15.117 1.50071C14.0996 0.558605 11.2964 0.0859375 8.49995 0.0859375ZM8.49995 8.11752C7.7771 8.11752 7.19164 8.67043 7.19164 9.35311C7.19164 10.0358 7.7771 10.5887 8.49995 10.5887C9.22279 10.5887 9.80823 10.0358 9.80823 9.35311C9.80823 8.67043 9.22279 8.11752 8.49995 8.11752ZM7.51873 5.33731V4.56506C7.51873 4.13881 7.15236 3.79282 6.70106 3.79282C6.24977 3.79282 5.8834 4.13884 5.8834 4.56506V5.33731L1.47095 9.78869C1.16689 10.0698 0.977135 10.462 0.977135 10.8946V12.1333C0.977135 12.816 1.56264 13.3689 2.28545 13.3689H2.61254V14.1412C2.61254 14.5675 2.97895 14.9134 3.43025 14.9134C3.88154 14.9134 4.24792 14.5675 4.24792 14.1412V13.3689H12.752V14.1412C12.752 14.5675 13.1182 14.9134 13.5697 14.9134C14.021 14.9134 14.3873 14.5675 14.3873 14.1412V13.3689H14.7144C15.4373 13.3689 16.0227 12.816 16.0227 12.1333V10.8946C16.0227 10.462 15.833 10.0698 15.5289 9.78869L11.1166 5.33731V4.56506C11.1166 4.13881 10.7502 3.79282 10.2989 3.79282C9.84757 3.79282 9.48124 4.13884 9.48124 4.56506V5.33731H7.51873ZM8.49995 6.88189C9.94564 6.88189 11.1166 7.98777 11.1166 9.35311C11.1166 10.7185 9.94567 11.8244 8.49995 11.8244C7.05426 11.8244 5.88336 10.7185 5.88336 9.35311C5.88336 7.98774 7.05426 6.88189 8.49995 6.88189Z" fill="#FFD74B"/>
</svg>

<svg width="17" height="15" fill="none" xmlns="http://www.w3.org/2000/svg"><path fill-rule="evenodd" clip-rule="evenodd" d="M8.5.09C5.7.09 2.9.56 1.88 1.5 1.04 2.28.76 3.66.66 4.54l-.01.12c0 .34.3.62.65.62l2.57-.2h.07c.35-.02.64-.29.64-.63V3.24c0-.38.32-.68.72-.68h6.4c.4 0 .72.3.72.68v1.21c0 .34.29.61.64.62l.07.01 2.57.2c.36 0 .65-.28.65-.62l-.01-.12c-.1-.88-.38-2.26-1.22-3.04C14.1.56 11.3.1 8.5.1zm0 8.03c-.72 0-1.3.55-1.3 1.23 0 .69.58 1.24 1.3 1.24.72 0 1.3-.55 1.3-1.24 0-.68-.58-1.23-1.3-1.23zm-.98-2.78v-.77a.8.8 0 00-.82-.78.8.8 0 00-.82.78v.77l-4.4 4.45c-.31.28-.5.67-.5 1.1v1.24c0 .69.58 1.24 1.3 1.24h.33v.77c0 .43.37.77.82.77a.8.8 0 00.82-.77v-.77h8.5v.77c0 .43.37.77.82.77a.8.8 0 00.82-.77v-.77h.32c.73 0 1.31-.55 1.31-1.24V10.9c0-.43-.19-.82-.5-1.1l-4.4-4.45v-.77a.8.8 0 00-.82-.78.8.8 0 00-.82.78v.77H7.52zm.98 1.54c1.45 0 2.62 1.1 2.62 2.47a2.55 2.55 0 01-2.62 2.47 2.55 2.55 0 01-2.62-2.47A2.55 2.55 0 018.5 6.88z" fill="#FFD74B"/></svg>
